X: 1
T: Mrs Kenny's
M: 4/4
L: 1/8
R: barndance
K: Dmaj
(3FG^G|:Af ed Af ed|B2 eg ~b4|(3bc'b af g2 Bc|1(3dcd (3fdB A2 (3FG^G:|2(3dcd fe d2 z2||
|:(3c'ba ea (3c'ba ea|(3d'c'b fb (3d'c'b fa|^g>e ^de f2 g2|1(3ac'b (3a^gf e2 c2:|2(3aba ^g2 a4||
cB ce dc df|e2 a2 a2 z a|~f3a ba ^gf|e4 ez (3fed|
c2 a2 a2  (3cBA|B2 ^g2 ^g2 za|bf fa ~^g3 b|(3a^ga c'2 a2 ||
